img/community-title-el-circle.svg

<svg width="178" height="178" viewBox="0 0 178 178" fill="none" xmlns="http://www.w3.org/2000/svg">
<g clip-path="url(#clip0_601_42)">
<path d="M144.449 144.45C143.865 145.034 143.275 145.606 142.677 146.168C129.366 158.7 112.08 166.166 93.8306 167.264C72.9486 168.545 51.6512 161.509 35.3214 146.168C34.7247 145.607 34.1314 145.034 33.548 144.45C32.9645 143.867 32.3943 143.275 31.8322 142.679C16.4814 126.349 9.44545 105.051 10.736 84.1693C11.8342 65.9209 19.2999 48.6362 31.8322 35.3264C32.3926 34.7287 32.9645 34.1376 33.548 33.553C34.1314 32.9685 34.7231 32.396 35.323 31.8357C49.8623 18.1846 69.0565 10.5859 88.9999 10.5859C108.943 10.5859 128.138 18.1846 142.677 31.8357C143.273 32.3938 143.864 32.9657 144.449 33.5514C145.032 34.1348 145.602 34.7282 146.166 35.3248C159.817 49.8642 167.415 69.0583 167.415 89.0017C167.415 108.945 159.817 128.139 146.166 142.679C145.607 143.274 145.037 143.867 144.449 144.45Z" stroke="black" stroke-width="5" stroke-miterlimit="10"/>
<path d="M98.7985 98.7962C129.423 68.1717 149.863 38.9591 144.451 33.548C139.04 28.1369 109.828 48.5764 79.2032 79.2008C48.5787 109.825 28.1392 139.038 33.5503 144.449C38.9614 149.86 68.1741 129.421 98.7985 98.7962Z" stroke="black" stroke-width="5" stroke-miterlimit="10"/>
<path d="M98.7985 98.7962C129.423 68.1717 149.863 38.9591 144.451 33.548C139.04 28.1369 109.828 48.5764 79.2032 79.2008C48.5787 109.825 28.1392 139.038 33.5503 144.449C38.9614 149.86 68.1741 129.421 98.7985 98.7962Z" stroke="black" stroke-width="5" stroke-miterlimit="10"/>
<path d="M118.072 118.071C148.697 87.4468 160.507 49.6051 144.451 33.5494C128.396 17.4938 90.554 29.3041 59.9295 59.9286C29.3051 90.5531 17.4947 128.395 33.5503 144.45C49.606 160.506 87.4477 148.696 118.072 118.071Z" stroke="black" stroke-width="5" stroke-miterlimit="10"/>
<path d="M131.531 131.531C162.156 100.906 167.94 57.0384 144.451 33.5493C120.962 10.0603 77.0945 15.8447 46.4701 46.4691C15.8456 77.0936 10.0612 120.961 33.5502 144.45C57.0393 167.939 100.907 162.155 131.531 131.531Z" stroke="black" stroke-width="5" stroke-miterlimit="10"/>
<path d="M33.5496 144.449C32.9662 143.865 32.3943 143.275 31.8339 142.677C19.3009 129.366 11.8353 112.08 10.7376 93.8306C9.45535 72.9486 16.4913 51.6512 31.8339 35.3214C32.3943 34.7248 32.9678 34.1314 33.5513 33.548C34.1347 32.9645 34.7264 32.3943 35.323 31.8323C51.6529 16.4814 72.9503 9.44545 93.8323 10.736C112.081 11.8353 129.366 19.3014 142.677 31.8339C143.276 32.3943 143.866 32.9662 144.449 33.5496C145.032 34.1331 145.602 34.7264 146.168 35.323C159.818 49.8625 167.417 69.0566 167.417 88.9999C167.417 108.943 159.818 128.137 146.168 142.677C145.607 143.276 145.035 143.866 144.45 144.449C143.867 145.032 143.275 145.602 142.677 146.168C128.137 159.818 108.943 167.417 88.9999 167.417C69.0566 167.417 49.8625 159.818 35.323 146.168C34.7264 145.607 34.1331 145.037 33.5496 144.449Z" stroke="black" stroke-width="5" stroke-miterlimit="10"/>
<path d="M144.451 144.451C149.863 139.039 129.423 109.827 98.7985 79.2024C68.1741 48.5779 38.9614 28.1384 33.5503 33.5495C28.1392 38.9606 48.5787 68.1732 79.2032 98.7977C109.828 129.422 139.04 149.862 144.451 144.451Z" stroke="black" stroke-width="5" stroke-miterlimit="10"/>
<path d="M144.451 144.451C149.863 139.039 129.423 109.827 98.7985 79.2024C68.1741 48.5779 38.9614 28.1384 33.5503 33.5495C28.1392 38.9606 48.5787 68.1732 79.2032 98.7977C109.828 129.422 139.04 149.862 144.451 144.451Z" stroke="black" stroke-width="5" stroke-miterlimit="10"/>
<path d="M144.451 144.451C160.507 128.395 148.697 90.5532 118.072 59.9287C87.4477 29.3043 49.606 17.4939 33.5503 33.5495C17.4947 49.6052 29.3051 87.4469 59.9295 118.071C90.554 148.696 128.396 160.506 144.451 144.451Z" stroke="black" stroke-width="5" stroke-miterlimit="10"/>
<path d="M144.451 144.451C167.94 120.962 162.156 77.0939 131.531 46.4694C100.907 15.8449 57.0393 10.0605 33.5502 33.5496C10.0612 57.0387 15.8456 100.906 46.4701 131.531C77.0945 162.155 120.962 167.94 144.451 144.451Z" stroke="black" stroke-width="5" stroke-miterlimit="10"/>
</g>
<defs>
<clipPath id="clip0_601_42">
<rect width="178" height="178" fill="white"/>
</clipPath>
</defs>
</svg>

<svg width="178" height="178" viewBox="0 0 178 178" fill="none" xmlns="http://www.w3.org/2000/svg"><g clip-path="url(#clip0_601_42)" stroke="#000" stroke-width="5" stroke-miterlimit="10"><path d="M144.449 144.45a79.506 79.506 0 01-1.772 1.718 78.102 78.102 0 01-48.846 21.096c-20.882 1.281-42.18-5.755-58.51-21.096a78.851 78.851 0 01-3.489-3.489c-15.35-16.33-22.387-37.628-21.096-58.51a78.092 78.092 0 0121.096-48.843 78.947 78.947 0 011.716-1.773 78.42 78.42 0 01112.618 1.772 78.419 78.419 0 01-1.717 109.125z"/><path d="M98.799 98.796c30.624-30.624 51.064-59.837 45.652-65.248-5.411-5.411-34.623 15.028-65.248 45.653-30.624 30.624-51.064 59.837-45.653 65.248 5.411 5.411 34.624-15.028 65.249-45.653z"/><path d="M98.799 98.796c30.624-30.624 51.064-59.837 45.652-65.248-5.411-5.411-34.623 15.028-65.248 45.653-30.624 30.624-51.064 59.837-45.653 65.248 5.411 5.411 34.624-15.028 65.249-45.653z"/><path d="M118.072 118.071c30.625-30.624 42.435-68.466 26.379-84.522-16.055-16.055-53.897-4.245-84.522 26.38-30.624 30.624-42.434 68.466-26.379 84.521 16.056 16.056 53.898 4.246 84.522-26.379z"/><path d="M131.531 131.531c30.625-30.625 36.409-74.493 12.92-97.982-23.489-23.489-67.356-17.704-97.98 12.92-30.625 30.625-36.41 74.492-12.92 97.981 23.488 23.489 67.356 17.705 97.98-12.919z"/><path d="M33.55 144.449a77.22 77.22 0 01-1.716-1.772 78.096 78.096 0 01-21.096-48.846C9.455 72.949 16.49 51.65 31.834 35.32a78.814 78.814 0 013.489-3.489c16.33-15.35 37.627-22.387 58.51-21.096a78.106 78.106 0 0148.844 21.098c.599.56 1.189 1.132 1.772 1.716a78.424 78.424 0 01.001 110.9A78.426 78.426 0 0189 167.417a78.424 78.424 0 01-55.45-22.969z"/><path d="M144.451 144.451c5.412-5.412-15.028-34.624-45.652-65.249C68.174 48.578 38.96 28.138 33.55 33.55c-5.41 5.41 15.029 34.623 45.653 65.248 30.625 30.624 59.837 51.064 65.248 45.653z"/><path d="M144.451 144.451c5.412-5.412-15.028-34.624-45.652-65.249C68.174 48.578 38.96 28.138 33.55 33.55c-5.41 5.41 15.029 34.623 45.653 65.248 30.625 30.624 59.837 51.064 65.248 45.653z"/><path d="M144.451 144.451c16.056-16.056 4.246-53.898-26.379-84.522-30.624-30.625-68.466-42.435-84.522-26.38-16.055 16.056-4.245 53.898 26.38 84.522 30.624 30.625 68.466 42.435 84.521 26.38z"/><path d="M144.451 144.451c23.489-23.489 17.705-67.357-12.92-97.982-30.624-30.624-74.492-36.409-97.98-12.92-23.49 23.49-17.705 67.357 12.92 97.982 30.623 30.624 74.491 36.409 97.98 12.92z"/></g><defs><clipPath id="clip0_601_42"><path fill="#fff" d="M0 0h178v178H0z"/></clipPath></defs></svg>
